static/logos/outline-glyph-color.svg

<svg width="38" height="50" viewBox="0 0 38 50" fill="none" xmlns="http://www.w3.org/2000/svg">
<g clip-path="url(#clip0_1_1772)">
<path d="M25 45V46.2192C25 47.945 23.6009 49.3442 21.875 49.3442C21.3383 49.3442 20.8106 49.2059 20.343 48.9428L1.59294 38.3959C0.608944 37.8425 0 36.8013 0 35.6724V14.3276C0 13.1986 0.608944 12.1574 1.59294 11.6039L20.343 1.05706C21.8472 0.210926 23.7525 0.744426 24.5988 2.24866C24.8617 2.71643 25 3.24405 25 3.78074V4.99996L27.227 4.33185C28.8802 3.83591 30.6223 4.77399 31.1183 6.4271C31.2056 6.71841 31.25 7.02091 31.25 7.32505V8.59371L33.9873 8.25154C35.7 8.03748 37.2619 9.25224 37.4759 10.9648C37.4919 11.0934 37.5 11.2228 37.5 11.3524V38.6475C37.5 40.3734 36.1009 41.7725 34.375 41.7725C34.2455 41.7725 34.1159 41.7644 33.9873 41.7484L31.25 41.4063V42.6749C31.25 44.4008 29.8509 45.7999 28.125 45.7999C27.8209 45.7999 27.5183 45.7555 27.227 45.6681L25 45ZM25 41.7374L28.125 42.6749V7.32505L25 8.26255V41.7374ZM31.25 11.743V38.2569L34.375 38.6475V11.3524L31.25 11.743ZM0 34.7413V15.2587V34.7413ZM3.125 14.3276V35.6724L21.875 46.2192V3.78074L3.125 14.3276ZM6.25 16.4063L9.375 14.8437V35.1563L6.25 33.5938V16.4063Z" fill="black"/>
</g>
<defs>
<clipPath id="clip0_1_1772">
<rect width="37.5" height="50" fill="white"/>
</clipPath>
</defs>
</svg>

<svg xmlns="http://www.w3.org/2000/svg" width="48.64" height="64" fill="none" viewBox="0 0 38 50"><g clip-path="url(#a)"><path fill="#000" d="M25 45v1.22a3.125 3.125 0 0 1-4.657 2.723L1.593 38.396A3.125 3.125 0 0 1 0 35.672V14.328c0-1.13.609-2.17 1.593-2.724l18.75-10.547A3.125 3.125 0 0 1 25 3.781V5l2.227-.668a3.125 3.125 0 0 1 4.023 2.993v1.269l2.737-.342a3.125 3.125 0 0 1 3.513 3.1v27.296a3.125 3.125 0 0 1-3.513 3.1l-2.737-.342v1.269a3.125 3.125 0 0 1-4.023 2.993L25 45Zm0-3.263 3.125.938V7.325L25 8.263v33.474Zm6.25-29.994v26.514l3.125.39V11.352l-3.125.391ZM0 34.741V15.26 34.74Zm3.125-20.413v21.344l18.75 10.547V3.781L3.125 14.328Zm3.125 2.078 3.125-1.562v20.312L6.25 33.594V16.406Z"/></g><defs><clipPath id="a"><path fill="#fff" d="M0 0h37.5v50H0z"/></clipPath></defs></svg>
